X:24
T:Pretty Miss Sally
M:6/8
L:1/8
B:Thompson's Compleat Collection of 200 Favourite Country Dances, vol. 1 (London, 1757)
Z:Transcribed and edited by Fynnian Titford-Mock, 2007
Z:abc's:AK/Fiddler's Companion
K:D
d|cde A2G|F2E D2d|c>de A2G|F2E D2A|d2z c2z|
B2z A2d|cBA EA^G|A3 A,2::A|dAB –cdc|BGD G,2B|
eBc ded|cAE A,2e|a2z g2z|f2z egb|agf edc|d3 D2:|

